public/home/speciality/isi_mark.svg

<svg width="340" height="260" viewBox="0 0 340 260" fill="none" xmlns="http://www.w3.org/2000/svg">
<path d="M63.4 33.4C46.78 33.4 33.4 46.78 33.4 63.4V196.6C33.4 213.22 46.78 226.6 63.4 226.6H276.6C293.22 226.6 306.6 213.22 306.6 196.6V63.4C306.6 46.78 293.22 33.4 276.6 33.4H63.4ZM63.4 10H276.6C306.184 10 330 33.816 330 63.4V196.6C330 226.184 306.184 250 276.6 250H63.4C33.816 250 10 226.184 10 196.6V63.4C10 33.816 33.816 10 63.4 10Z" fill="white"/>
<path d="M80.1992 179.8H103.599V45.1001H80.1992V179.8Z" fill="white"/>
<path d="M45.1016 161.5V183.9C45.1016 192.122 48.3676 200.007 54.1813 205.82C59.9949 211.634 67.8799 214.9 76.1016 214.9H193.702C201.923 214.9 209.808 211.634 215.622 205.82C221.436 200.007 224.702 192.122 224.702 183.9V149.3C224.702 141.078 221.436 133.193 215.622 127.38C209.808 121.566 201.923 118.3 193.702 118.3H146.302C144.286 118.3 142.353 117.499 140.928 116.074C139.502 114.649 138.702 112.716 138.702 110.7V76.1001C138.702 74.0845 139.502 72.1514 140.928 70.7261C142.353 69.3008 144.286 68.5001 146.302 68.5001H263.902C264.9 68.5001 265.888 68.6967 266.81 69.0786C267.732 69.4605 268.57 70.0204 269.276 70.7261C269.981 71.4318 270.541 72.2696 270.923 73.1917C271.305 74.1138 271.502 75.1021 271.502 76.1001V98.5001H294.902V76.1001C294.902 67.8784 291.635 59.9934 285.822 54.1798C280.008 48.3662 272.123 45.1001 263.902 45.1001H146.302C138.08 45.1001 130.195 48.3662 124.381 54.1798C118.568 59.9934 115.302 67.8784 115.302 76.1001V110.7C115.302 118.922 118.568 126.807 124.381 132.62C130.195 138.434 138.08 141.7 146.302 141.7H193.702C195.717 141.7 197.65 142.501 199.076 143.926C200.501 145.351 201.302 147.284 201.302 149.3V183.9C201.302 185.916 200.501 187.849 199.076 189.274C197.65 190.699 195.717 191.5 193.702 191.5H76.1016C74.0859 191.5 72.1528 190.699 70.7276 189.274C69.3023 187.849 68.5016 185.916 68.5016 183.9V161.5H45.1016Z" fill="white"/>
<path d="M236.398 214.9V80.2002H259.798V214.9H236.398Z" fill="white"/>
</svg>

<?xml version="1.0" encoding="UTF-8"?>
<svg width="340" height="260" version="1.1" xmlns="http://www.w3.org/2000/svg">
 <path d="m63.4 33.4c-16.62 0-30 13.38-30 30v133.2c0 16.62 13.38 30 30 30h213.2c16.62 0 30-13.38 30-30v-133.2c0-16.62-13.38-30-30-30zm0-23.4h213.2c29.584 0 53.4 23.816 53.4 53.4v133.2c0 29.584-23.816 53.4-53.4 53.4h-213.2c-29.584 0-53.4-23.816-53.4-53.4v-133.2c0-29.584 23.816-53.4 53.4-53.4z"/>
 <path d="m80.2 179.8h23.4v-134.7h-23.4z"/>
 <path d="m45.1 161.5v22.4a31 31 0 0 0 31 31h117.6a31 31 0 0 0 31-31v-34.6a31 31 0 0 0-31-31h-47.4a7.6 7.6 0 0 1-7.6-7.6v-34.6a7.6 7.6 0 0 1 7.6-7.6h117.6a7.6 7.6 0 0 1 7.6 7.6v22.4h23.4v-22.4a31 31 0 0 0-31-31h-117.6a31 31 0 0 0-31 31v34.6a31 31 0 0 0 31 31h47.4a7.6 7.6 0 0 1 7.6 7.6v34.6a7.6 7.6 0 0 1-7.6 7.6h-117.6a7.6 7.6 0 0 1-7.6-7.6v-22.4z"/>
 <path d="m236.4 214.9v-134.7h23.4v134.7z"/>
</svg>
